X: 35128
T: Roly Gentle
R: waltz
M: 3/4
K: Ddorian
|:D2 DEFA|f2 fedc|A2 AGAc|E2 EDEF|
D2 DFAd|^c2 cAGE|A2 dAGE|1 D3 E DC:|2 D3 A =B^c||
|:d3 e fd|e^c A2 G2|F2 FEFA|(EA) (FA) (EA)|
d3 e fd|e^c A2 =B2|c3 A GE|^cA GA EA:|

